X: 1
T: Old Station House, The
M: 4/4
L: 1/8
R: reel
K: Ador
a3b aged|eggf gedg|edce dcBc|AG=FG E2GA|
cG~G2 cdeg|dB~B2 d2 (3efg|aged edce|dcBc A2za||
^gaag aged|eggf gedg|edce dcBc|AG=FG E2GA|
cG~G2 cdeg|dB~B2 d2 (3efg|aged edce|dcBc A2z^G||
Aeed edcB|Aeed edBG|~E3F ~G3z|Bcd^d edcB|
Aeae edcB|aeAe ed (3Bcd|e2ge aged|ceBe a2z2||
aee=f edcB|Aee=f edBG|~E3F ~G3z|BcdB edcB|
Aeae edcB|aeAe ed (3Bcd|e2ge aged|ceBe A2z2|
